X: 33836
T: Recession, The
R: jig
M: 6/8
K: Bdorian
~B3 ABF|~B3 ABF|~B3 dBe|edc BAF|
~B3 ABF|~B3 BAF|DEF EFA|FAB AFE:|
a2 f abg-|g2 e gaf-|f2 B ^dee|^dBA ~B3|
[1 a2 f abg-|g2 e gaf-|f2 B ^dee|^dBA ~B3:|
[2 a2 f abg-|g2 e ga=g-|g2 e =gag|fed ced||

